assets/Spiral shell/Flat/spiral_shell_flat.svg

<svg width="32" height="32" viewBox="0 0 32 32" fill="none" xmlns="http://www.w3.org/2000/svg">
<path d="M6.77328 3.6144L6.39431 3.97479C5.95158 3.52399 5.33513 3.24438 4.65337 3.24438C4.54345 3.24438 4.43524 3.25165 4.32918 3.26573L3.02228 4.02528V8.12805L13.0363 28.3088L26 29.8959L26.8475 29.8944C30.7995 26.1236 30.9906 19.8616 27.2233 15.9044L25.4113 14.0034C25.2754 12.3502 24.5946 10.7302 23.3634 9.43438C21.7064 7.69598 19.4037 6.93111 17.1748 7.15744L15.5533 5.45442C14.2698 4.09371 12.1574 3.99026 10.762 5.189L11.0533 4.88439L9.91328 3.68441C9.07328 2.80441 7.66328 2.7644 6.77328 3.6144Z" fill="#D3D3D3"/>
<path d="M22.7811 25.6008L25.4433 28.3945C28.6433 25.3445 28.7633 20.2845 25.7133 17.0945L25.1889 16.5436C24.8466 17.8447 24.1504 19.0695 23.1034 20.0644C21.5497 21.5509 21.4217 23.9756 22.7811 25.6008Z" fill="#212121"/>
<path d="M4.375 8.99998C4.09855 7.5256 6.63135 4.59352 8.23708 3.0011C7.70979 3.01773 7.1857 3.2205 6.77328 3.61439L3.98144 6.26937C3.13324 5.23624 3.81406 3.91372 4.37324 3.26025C3.1576 3.3992 2.21338 4.43151 2.21338 5.68435C2.21338 6.32203 2.458 6.90257 2.85851 7.33726L2.69328 7.49439C1.80328 8.34439 1.76327 9.75438 2.61327 10.6444L3.79964 11.8943C2.81903 13.2338 2.90986 15.1287 4.09328 16.3744L5.8789 18.2498C5.3011 21.2577 6.13432 24.4897 8.40335 26.8743C10.2633 28.8243 12.8334 29.9244 15.5234 29.9144L26.2112 29.8955C20.9107 29.1968 12.6803 26.5643 11.625 21C10.2581 13.7928 15.1912 9.0562 21.5122 8.01811C20.0451 7.22507 18.3618 6.9547 16.7427 7.21391L7.25637 15.4298C6.73936 14.8588 6.1758 13.8864 6.25 12.625C6.34999 10.9252 11.0407 6.41761 13.3743 4.37564C12.3937 4.27382 11.3779 4.5873 10.6133 5.32441L5.04091 10.6356C4.77947 10.3089 4.52328 9.79083 4.375 8.99998Z" fill="#9B9B9B"/>
</svg>

<svg xmlns="http://www.w3.org/2000/svg" width="32" height="32" fill="none"><path fill="#D3D3D3" d="m6.773 3.614-.379.36a2.433 2.433 0 0 0-2.065-.708l-1.307.76v4.102l10.014 20.18L26 29.897l.848-.002c3.951-3.77 4.143-10.032.375-13.99l-1.812-1.9a7.507 7.507 0 0 0-2.048-4.57 7.481 7.481 0 0 0-6.188-2.277l-1.622-1.703a3.477 3.477 0 0 0-4.791-.265l.291-.305-1.14-1.2c-.84-.88-2.25-.92-3.14-.07Z"/><path fill="#212121" d="m22.781 25.6 2.662 2.794c3.2-3.05 3.32-8.11.27-11.3l-.524-.55a7.462 7.462 0 0 1-2.086 3.52 4.062 4.062 0 0 0-.322 5.537Z"/><path fill="#9B9B9B" d="M4.375 9c-.276-1.474 2.256-4.406 3.862-5.999a2.213 2.213 0 0 0-1.464.613L3.981 6.27c-.848-1.033-.167-2.355.392-3.009A2.44 2.44 0 0 0 2.86 7.337l-.166.157c-.89.85-.93 2.26-.08 3.15l1.187 1.25a3.509 3.509 0 0 0 .293 4.48L5.88 18.25a9.802 9.802 0 0 0 9.644 11.664l10.688-.019c-5.3-.698-13.53-3.33-14.586-8.895-1.367-7.207 3.566-11.944 9.887-12.982a7.536 7.536 0 0 0-4.77-.804L7.257 15.43c-.517-.571-1.08-1.544-1.006-2.805.1-1.7 4.79-6.207 7.124-8.25a3.45 3.45 0 0 0-2.76.95l-5.573 5.31c-.262-.326-.518-.844-.666-1.635Z"/></svg>
